packages/ui-icons/svg/Line/text-centered.svg

<svg viewBox="0 0 1920 1920" xmlns="http://www.w3.org/2000/svg">
    <path d="M1664 1664v128H256v-128h1408Zm256-384v128H0v-128h1920Zm-127.872-384v128H128V896h1664.128ZM1920 512v128H0V512h1920Zm-256-384v128H256V128h1408Z" fill-rule="evenodd"/>
</svg>

<svg viewBox="0 0 1920 1920" version="1.1" xmlns="http://www.w3.org/2000/svg">
    <path d="M1664,1664 L1664,1792 L256,1792 L256,1664 L1664,1664 Z M1920,1280 L1920,1408 L0,1408 L0,1280 L1920,1280 Z M1792.128,896 L1792.128,1024 L128,1024 L128,896 L1792.128,896 Z M1920,512 L1920,640 L0,640 L0,512 L1920,512 Z M1664,128 L1664,256 L256,256 L256,128 L1664,128 Z" stroke="none" stroke-width="1" fill-rule="evenodd"/>
</svg>
